images/logo12.svg

<?xml version="1.0" encoding="UTF-8" standalone="no"?>
<svg width="150px" height="60px" viewBox="0 0 150 60" version="1.1" xmlns="http://www.w3.org/2000/svg" xmlns:xlink="http://www.w3.org/1999/xlink" xmlns:sketch="http://www.bohemiancoding.com/sketch/ns">
    <!-- Generator: Sketch 3.3.3 (12081) - http://www.bohemiancoding.com/sketch -->
    <title>logo8</title>
    <desc>Created with Sketch.</desc>
    <defs></defs>
    <g id="Page-1" stroke="none" stroke-width="1" fill="none" fill-rule="evenodd" sketch:type="MSPage">
        <g id="logo8" sketch:type="MSArtboardGroup" fill="#FFFFFF">
            <path d="M52.0144366,10.3784159 C52.0144366,10.1398776 52.524175,9.95916673 52.8300181,9.95916673 C55.171174,9.83989757 58.6119086,9.77845588 62.2164877,9.77845588 C72.3129501,9.77845588 76.2415772,15.2720657 76.2415772,22.305332 C76.2415772,31.4854432 69.5312346,35.4249397 61.3025995,35.4249397 C59.9190237,35.4249397 59.4456951,35.363498 58.480833,35.363498 L58.480833,49.2493197 C58.480833,49.5492998 58.3606804,49.6685689 58.0621193,49.6685689 L52.4331503,49.6685689 C52.1418712,49.6685689 52.0144366,49.552914 52.0144366,49.252934 L52.0144366,10.3784159 L52.0144366,10.3784159 Z M58.477192,29.5807508 C59.3146195,29.6385783 59.9809205,29.6385783 61.4263931,29.6385783 C65.6863502,29.6385783 69.6914381,28.1459067 69.6914381,22.4173727 C69.6914381,17.8273171 66.8259797,15.4997614 61.9616185,15.4997614 C60.5197868,15.4997614 59.139852,15.5612031 58.477192,15.6226448 L58.477192,29.5735224 L58.477192,29.5807508 Z M89.8151842,25.287061 C86.9315209,25.287061 85.9702998,26.718291 85.9702998,27.9109826 C85.9702998,29.2265576 86.6329598,30.1228834 90.4742032,32.0890174 C96.1905559,34.8358223 97.9855634,37.4561297 97.9855634,41.3305703 C97.9855634,47.1133175 93.5435569,50.2215441 87.5359251,50.2215441 C84.3500597,50.2215441 81.6375229,49.5601424 80.0791796,48.6674308 C79.8388744,48.5481616 79.7769775,48.3674508 79.7769775,48.0674708 L79.7769775,42.7618002 C79.7769775,42.4003785 79.959027,42.2811094 80.1993323,42.4618202 C82.4858733,43.9508776 85.1328723,44.6086651 87.5359251,44.6086651 C90.4195883,44.6086651 91.6211147,43.4159735 91.6211147,41.8112612 C91.6211147,40.4956862 90.7836872,39.3644362 87.1172113,37.4561297 C81.947007,35.0165332 79.7879005,32.5118808 79.7879005,28.333846 C79.7879005,23.6823487 83.4507354,19.8042938 89.8188251,19.8042938 C92.9427937,19.8042938 95.149233,20.2849847 96.3507594,20.823503 C96.6529615,21.0042139 96.7148583,21.2933512 96.7148583,21.5355038 L96.7148583,26.4869811 C96.7148583,26.7869611 96.5328088,26.9640577 96.1687099,26.8484028 C94.5484698,25.8870211 92.163622,25.2942895 89.8188251,25.2942895 L89.8151842,25.287061 Z" id="Shape" sketch:type="MSShapeGroup"></path>
        </g>
    </g>
</svg>

<svg width="150" height="60" xmlns="http://www.w3.org/2000/svg"><g id="Page-1" stroke="none" stroke-width="1" fill="none" fill-rule="evenodd"><g id="logo8" fill="#FFF"><path d="M52.014 10.378c0-.238.51-.419.816-.419 2.341-.12 5.782-.18 9.386-.18 10.097 0 14.026 5.493 14.026 12.526 0 9.18-6.71 13.12-14.94 13.12-1.383 0-1.856-.062-2.821-.062V49.25c0 .3-.12.42-.419.42h-5.629c-.291 0-.419-.116-.419-.416V10.378zm6.463 19.203c.838.058 1.504.058 2.95.058 4.26 0 8.264-1.493 8.264-7.222 0-4.59-2.865-6.917-7.73-6.917-1.441 0-2.821.061-3.484.123V29.58zm31.338-4.294c-2.883 0-3.845 1.431-3.845 2.624 0 1.316.663 2.212 4.504 4.178 5.717 2.747 7.512 5.367 7.512 9.242 0 5.782-4.442 8.89-10.45 8.89-3.186 0-5.898-.66-7.457-1.554-.24-.119-.302-.3-.302-.6v-5.305c0-.362.182-.48.422-.3 2.287 1.489 4.934 2.147 7.337 2.147 2.884 0 4.085-1.193 4.085-2.798 0-1.315-.837-2.447-4.504-4.355-5.17-2.44-7.33-4.944-7.33-9.122 0-4.652 3.664-8.53 10.032-8.53 3.124 0 5.33.481 6.532 1.02.302.18.364.47.364.712v4.951c0 .3-.182.477-.546.361-1.62-.961-4.005-1.554-6.35-1.554l-.004-.007z" id="Shape"/></g></g></svg>
